X: 1213
T: Karanfil Ocak Ocak
C: Necati Coşkun
O: Turkey
F: http://compmusic.upf.edu/node/140
N: tahir--turku--sofyan--karanfil_ocak--nevsehir
N: makam= tahir
N: form= turku
N: usul= sofyan = 4/4
M: 4/4
L: 1/16
K: C _2/4B ^3/4f  
Q: 1/4=93
%%MIDI tuningsystem comma53
z4 f2g2 a4 a4  | a3c' b2a2 abag abag  | \
w:  Ka ran fil_ o  |  cak_ *  o *  cak    | 
a2z2 fga2 g3f e2d2  | 
w:  *  Gü lüm  *  var  *  ku  | 
gfg2 e2d2 d2{=f}ed cdB2  | AA3 B2cd cBBA A4  | 
w:  cak  *  *  ku *  cak    |  A man  gü lüm  *  var  *  *  *  ku  | 
gfg2 e2d2 dcde cdB2  | A2z2 f2g2 a4 a4  | \
w:  cak  *  *  ku *  cak    |  *  El le rin  gü  | 
a3c' b2a2 abag abag  | 
w:  lü  *  aç *  mış    | 
a2z2 fga2 g3f e2d2  | gfg2 e2d2 dcde c2B2  | \
w:  *  Be nim  *  gü *  lüm   |  to *  *  mur *  cak    | 
AA3 B2cd cBBA A4  | 
w:  A man  be nim  *  gü *  *  *  lüm   | 
gfg2 e2d2 dcde cdB2  | AA3 B2cd cB2A A2z2  | 
w:  to *  *  mur *  cak    |  A man  hop  nin *  na *  *  yı   | 
gfg2 e2d2 dcde cdB2  | A2A2 B2cd cB2A A2z2  | 
w:  nin *  *  na *  yı   |  Yav rum  gel_ oy *  na *  *  yı   | 
gfg2 e2d2 dcde cdB2  | AA3 B2c2 cB2A A4  | \
w:  oy *  *  na *  yı   |  A man  gü zel  kız  *  *  ba  | 
d2d2 c2d2 d2{=f}ed cdB2  | 
w:  şın_ i *  *  çin   | 
A2A2 B2cd cB2A A2z2  | gfg2 e2d2 dcde cdB2  | 
w:  Yav rum  ter ke *  de *  *  rim   |  dün *  *  ya *  yı   | 
AA3 B2cd cB2A A2cB  | B2A6 A8  | z4 f2g2 a4 a4  | \
w:  A man  ter ke *  de *  *  rim   |  dün ya yı   |  Ka ran fil_ o  | 
a3c' b2a2 abag abag  | 
w:  cak_ *  o *  cak    | 
a2z2 fga2 g3f e2d2  | gfg2 e2d2 d2{=f}ed cdB2  | \
w:  *  Gü lüm  *  var  *  ku  |  cak  *  *  ku *  cak    | 
AA3 B2cd cBBA A4  | 
w:  A man  gü lüm  *  var  *  *  *  ku  | 
gfg2 e2d2 dcde cdB2  | A2z2 f2g2 a4 a4  | \
w:  cak  *  *  ku *  cak    |  *  El le rin  gü  | 
a3c' b2a2 abag abag  | 
w:  lü  *  aç *  mış    | 
a2z2 fga2 g3f e2d2  | gfg2 e2d2 dcde c2B2  | \
w:  *  Be nim  *  gü *  lüm   |  to *  *  mur *  cak    | 
AA3 B2cd cBBA A4  | 
w:  A man  be nim  *  gü *  *  *  lüm   | 
gfg2 e2d2 dcde cdB2  | AA3 B2cd cB2A A2z2  | 
w:  to *  *  mur *  cak    |  A man  hop  nin *  na *  *  yı   | 
gfg2 e2d2 dcde cdB2  | A2A2 B2cd cB2A A2z2  | 
w:  nin *  *  na *  yı   |  Yav rum  gel_ oy *  na *  *  yı   | 
gfg2 e2d2 dcde cdB2  | AA3 B2c2 cB2A A4  | \
w:  oy *  *  na *  yı   |  A man  gü zel  kız  *  *  ba  | 
d2d2 c2d2 d2{=f}ed cdB2  | 
w:  şın_ i *  *  çin   | 
A2A2 B2cd cB2A A2z2  | gfg2 e2d2 dcde cdB2  | 
w:  Yav rum  ter ke *  de *  *  rim   |  dün *  *  ya *  yı   | 
AA3 B2cd cB2A A2cB  | B2A6 A8  | |


